src/assets/LinkedIn.svg

<svg xmlns="http://www.w3.org/2000/svg" viewBox="0 -0.5 30 30" shape-rendering="crispEdges">
  <path stroke="#525252" d="M2 0h1m1 0h24M1 1h1m26 0h1M6 2h3m3 0h3m3 0h2m1 0h1m7 0h1m-4 1h1m2 0h1M2 4h1m26 0h1m-3 1h1m1 0h1m-3 1h1m1 0h1m-3 1h1m1 0h1m-3 1h1m1 0h1m-3 1h1m1 0h1m-3 1h1m1 0h1m-3 1h1m1 0h1m-3 1h1m1 0h1m-3 1h1m1 0h1M2 14h1m24 0h1m1 0h1m-3 1h1m1 0h1M2 16h1m24 0h1m1 0h1M2 17h1m24 0h1m1 0h1M2 18h1m24 0h1m1 0h1m-3 1h1m1 0h1m-3 1h1m1 0h1m-3 1h1m1 0h1m-3 1h1m1 0h1M2 23h1m24 0h1m1 0h1m-3 1h1m1 0h1m-1 1h1M3 26h1m22 0h1m2 0h1M5 27h6m7 0h3"/>
  <path stroke="#383838" d="M3 0h1M0 2h1m8 0h3m8 0h1m2 0h2M0 3h1M0 4h1M0 5h1M0 6h1M0 7h1M0 8h1M0 9h1m-1 1h1m10 0h1M0 11h1m10 0h1M0 12h1m10 0h1M0 13h1m-1 1h1m10 0h1m3 0h1m2 0h1M0 15h1m10 0h2m1 0h4m1 0h1M0 16h1m10 0h2m1 0h2m3 0h1M0 17h1m10 0h2m1 0h2m3 0h1M0 18h1m10 0h2m1 0h2m3 0h1M0 19h1m10 0h2m1 0h2m3 0h1M0 20h1m10 0h1M0 21h1m-1 1h1m-1 1h1m-1 1h1m-1 1h1m1 0h1m-3 1h1m-1 1h1m24 0h1m3 0h1M1 28h1m26 0h1M2 29h26"/>
  <path stroke="#a3a3a3" d="M2 1h1m24 0h1M3 2h1m22 0h1M2 3h1m24 0h1m-18 7h1m1 0h1m-3 2h1m1 0h1m-3 2h1m8 0h1m-10 1h1m9 0h1m-11 1h1m9 0h1M1 17h1m8 0h1m9 0h1m-11 1h1m9 0h1M1 19h1m8 0h1m9 0h1m7 0h1M1 20h1m8 0h1m9 0h1m7 0h1M1 21h1m26 0h1m-1 1h1M1 24h1m26 0h1m-1 1h1M1 26h2m24 0h2M2 27h2m22 0h2M3 28h1m1 0h7m14 0h1"/>
  <path stroke="#ccc" d="M3 1h4m18 0h2M2 2h1m24 0h1M1 3h1m26 0h1M1 4h1m26 0h1M1 7h1M1 8h1M1 9h1m-1 2h1m-1 1h1m-1 1h1m26 0h1m-1 1h1M1 25h1m2 3h1m10 0h4m3 0h2"/>
  <path stroke="#e0e0e0" d="M7 1h5m1 0h1m9 0h2m3 4h1m-1 1h1m-1 4h1m-1 1h1m-1 1h1M7 20h1m-1 1h2m13 0h1M9 22h12"/>
  <path stroke="#f5f5f5" d="M12 1h1m1 0h9M1 5h1M1 6h1m7 2h12m-1 1h3m-1 1h1"/>
  <path stroke="#7a7a7a" d="M1 2h1m2 0h2m19 0h1m2 0h1M3 3h1m23 1h1M2 5h1M2 6h1M2 7h1M2 8h1"/>
  <path stroke="#666" d="M15 2h3m4 0h1M2 9h1m-1 1h1m-1 1h1m7 0h1m1 0h1M2 12h1m-1 1h1m9 1h1m1 0h1m2 0h1M2 15h1m15 0h1m-3 1h1m1 0h1m-1 1h1m-1 1h1M2 19h1m15 0h1M2 20h1m9 0h1m1 0h2m2 0h2M2 21h1m-1 1h1m-1 2h1m24 1h1M1 27h1m2 0h1m6 0h7m3 0h4m3 0h1M2 28h1m24 0h1"/>
    <!-- bakcground highlight -->
  <path stroke="#bfb5cf" d="M4 3h22M3 5h1m22 0h1m-1 1h1M3 25h1m22 0h1m-2 1h1"/>
  <!--background shadow-->
    <!-- main bakcground medium highlight-->
  <path stroke="#aa9cbf" d="M3 4h3m17 0h4M4 5h1m20 0h1M3 6h1M3 7h1m22 0h1M3 23h1m-1 1h1m22 0h1M4 25h1m20 0h1M4 26h2m17 0h2"/>

  <!-- main bakcground -->
  <path stroke="#9584ae" d="M6 4h17M5 5h20M4 6h22M4 7h5m12 0h5M3 8h4m16 0h4M3 9h3m18 0h3M3 10h3m18 0h3M3 11h3m18 0h3M3 12h3m18 0h3M3 13h3m18 0h3M3 14h3m18 0h3M3 15h3m18 0h3M3 16h3m18 0h3M3 17h3m18 0h3M3 18h3m18 0h3M3 19h3m18 0h3M3 20h3m18 0h3M3 21h3m18 0h3M3 22h3m17 0h4M4 23h3m15 0h5M4 24h5m12 0h5M5 25h20M6 26h17"/>

  <path stroke="#000" d="M9 7h12M7 8h2m12 0h2M6 9h1m16 0h1M6 10h1m16 0h1M6 11h1m16 0h1M6 12h1m16 0h1M6 13h1m16 0h1M6 14h1m16 0h1M6 15h1m16 0h1M6 16h1m16 0h1M6 17h1m16 0h1M6 18h1m16 0h1M6 19h1m16 0h1M6 20h1m16 0h1M6 21h1m16 0h1M7 22h2m12 0h2M9 23h12"/>
  <path stroke="#fff" d="M28 7h1m-1 1h1m-1 1h1"/>
  <path stroke="#f5ebdd" d="M7 9h13M7 10h3m3 0h9M7 11h3m3 0h10M7 12h3m3 0h10M7 13h16M7 14h3m3 0h1m2 0h1m3 0h3M7 15h3m3 0h1m7 0h2M7 16h3m3 0h1m3 0h1m3 0h2M7 17h3m3 0h1m2 0h2m3 0h2M7 18h3m3 0h1m2 0h2m3 0h2M7 19h3m3 0h1m2 0h2m3 0h2M8 20h2m3 0h1m2 0h2m3 0h2M9 21h13"/>
  <path stroke="#b8b8b8" d="M1 10h1m-1 4h1m-1 1h1m26 0h1M1 16h1m26 0h1m-1 1h1M1 18h1m26 0h1M12 28h3m4 0h3m2 0h2"/>
  <path stroke="#8f8f8f" d="M1 22h1m-1 1h1m26 0h1"/>
    <!-- under icon shadow -->
  <path stroke="#6d627f" d="M6 22h1m0 1h2m12 0h1M9 24h12"/>
</svg>

<svg xmlns="http://www.w3.org/2000/svg" viewBox="0 -0.5 30 30" shape-rendering="crispEdges">
<metadata>Made with Pixels to Svg https://codepen.io/shshaw/pen/XbxvNj</metadata>
<path stroke="#525252" d="M2 0h1M4 0h24M1 1h1M28 1h1M6 2h3M12 2h3M18 2h2M21 2h1M29 2h1M26 3h1M29 3h1M2 4h1M29 4h1M27 5h1M29 5h1M27 6h1M29 6h1M2 7h1M27 7h1M29 7h1M2 8h1M27 8h1M29 8h1M27 9h1M29 9h1M27 10h1M29 10h1M27 11h1M29 11h1M27 12h1M29 12h1M27 13h1M29 13h1M2 14h1M27 14h1M29 14h1M27 15h1M29 15h1M2 16h1M27 16h1M29 16h1M2 17h1M27 17h1M29 17h1M2 18h1M27 18h1M29 18h1M27 19h1M29 19h1M27 20h1M29 20h1M27 21h1M29 21h1M27 22h1M29 22h1M2 23h1M27 23h1M29 23h1M27 24h1M29 24h1M29 25h1M3 26h1M26 26h1M29 26h1M5 27h1M8 27h3M18 27h3" />
<path stroke="#383838" d="M3 0h1M0 2h1M9 2h3M20 2h1M23 2h2M0 3h1M0 4h1M0 5h1M0 6h1M0 7h1M0 8h1M0 9h1M0 10h1M11 10h1M0 11h1M11 11h1M0 12h1M11 12h1M0 13h1M0 14h1M11 14h1M15 14h1M18 14h1M0 15h1M11 15h2M14 15h4M19 15h1M0 16h1M11 16h2M14 16h2M19 16h1M0 17h1M11 17h2M14 17h2M19 17h1M0 18h1M11 18h2M14 18h2M19 18h1M0 19h1M11 19h2M14 19h2M19 19h1M0 20h1M11 20h1M0 21h1M0 22h1M0 23h1M0 24h1M0 25h1M2 25h1M0 26h1M0 27h1M25 27h1M29 27h1M1 28h1M28 28h1M2 29h26" />
<path stroke="#a3a3a3" d="M2 1h1M27 1h1M3 2h1M26 2h1M2 3h1M27 3h1M10 10h1M12 10h1M10 12h1M12 12h1M10 14h1M19 14h1M10 15h1M20 15h1M10 16h1M20 16h1M1 17h1M10 17h1M20 17h1M10 18h1M20 18h1M1 19h1M10 19h1M20 19h1M28 19h1M1 20h1M10 20h1M20 20h1M28 20h1M1 21h1M28 21h1M28 22h1M1 24h1M28 25h1M1 26h2M27 26h2M2 27h2M26 27h2M3 28h1M5 28h10M18 28h1M24 28h1M26 28h1" />
<path stroke="#cccccc" d="M3 1h4M25 1h2M2 2h1M27 2h1M1 3h1M28 3h1M1 4h1M28 4h1M1 7h1M1 8h1M1 9h1M1 11h1M1 12h1M1 13h1M28 13h1M28 14h1M28 24h1M1 25h1M4 28h1M15 28h3M22 28h2M25 28h1" />
<path stroke="#e0e0e0" d="M7 1h5M13 1h1M23 1h2M28 5h1M28 6h1M28 10h1M28 11h1M28 12h1M7 20h1M7 21h2M22 21h1M9 22h12" />
<path stroke="#f5f5f5" d="M12 1h1M14 1h9M1 5h1M1 6h1M9 8h12M20 9h3M22 10h1" />
<path stroke="#7a7a7a" d="M1 2h1M4 2h2M25 2h1M28 2h1M3 3h1M27 4h1M2 5h1M2 6h1" />
<path stroke="#666666" d="M15 2h3M22 2h1M2 9h1M2 10h1M2 11h1M10 11h1M12 11h1M2 12h1M2 13h1M12 14h1M14 14h1M17 14h1M2 15h1M18 15h1M16 16h1M18 16h1M18 17h1M18 18h1M2 19h1M18 19h1M2 20h1M12 20h1M14 20h2M18 20h2M2 21h1M2 22h1M2 24h1M27 25h1M1 27h1M4 27h1M6 27h2M11 27h7M21 27h4M28 27h1M2 28h1M27 28h1" />
<path stroke="#fbb7ae" d="M4 3h20M23 4h3M3 5h1M26 8h1M26 9h1M3 25h1M26 25h1M25 26h1" />
<path stroke="#eb9993" d="M24 3h2M3 4h4M21 4h2M26 4h1M4 5h1M24 5h3M3 6h1M26 6h1M3 7h1M24 7h1M25 8h1M3 23h1M3 24h1M26 24h1M4 25h1M25 25h1M4 26h2M23 26h2" />
<path stroke="#da7b78" d="M7 4h14M5 5h19M4 6h22M4 7h5M21 7h3M25 7h2M3 8h4M23 8h2M3 9h3M24 9h2M3 10h3M24 10h3M3 11h3M24 11h3M3 12h3M24 12h3M3 13h3M24 13h3M3 14h3M24 14h3M3 15h3M24 15h3M3 16h3M24 16h3M3 17h3M24 17h3M3 18h3M24 18h3M3 19h3M24 19h3M3 20h3M24 20h3M3 21h3M24 21h3M3 22h3M23 22h4M4 23h3M22 23h5M4 24h5M21 24h5M5 25h20M6 26h17" />
<path stroke="#000000" d="M9 7h12M7 8h2M21 8h2M6 9h1M23 9h1M6 10h1M23 10h1M6 11h1M23 11h1M6 12h1M23 12h1M6 13h1M23 13h1M6 14h1M23 14h1M6 15h1M23 15h1M6 16h1M23 16h1M6 17h1M23 17h1M6 18h1M23 18h1M6 19h1M23 19h1M6 20h1M23 20h1M6 21h1M23 21h1M7 22h2M21 22h2M9 23h12" />
<path stroke="#ffffff" d="M28 7h1M28 8h1M28 9h1" />
<path stroke="#f5ebdd" d="M7 9h13M7 10h3M13 10h9M7 11h3M13 11h10M7 12h3M13 12h10M7 13h16M7 14h3M13 14h1M16 14h1M20 14h3M7 15h3M13 15h1M21 15h2M7 16h3M13 16h1M17 16h1M21 16h2M7 17h3M13 17h1M16 17h2M21 17h2M7 18h3M13 18h1M16 18h2M21 18h2M7 19h3M13 19h1M16 19h2M21 19h2M8 20h2M13 20h1M16 20h2M21 20h2M9 21h13" />
<path stroke="#b8b8b8" d="M1 10h1M1 14h1M1 15h1M28 15h1M1 16h1M28 16h1M28 17h1M1 18h1M28 18h1M19 28h3" />
<path stroke="#8f8f8f" d="M1 22h1M1 23h1M28 23h1" />
<path stroke="#a0716f" d="M6 22h1M7 23h2M21 23h1M9 24h12" />
</svg>
